X:1
T: Lowe's Reel
C:John Cumming
R:Reel
Q: 232
K:A
M:4/4
L:1/8
|:A1/2A1/2A A2 Ae ce|dc Bc de fg|a3/2A1/2 A1/2A1/2A a2 ec|dB cA GB Bc|
A1/2A1/2A A2 Ae ce|dc Bc de fg|a3/2A1/2 A1/2A1/2A a2 ec|dB cA GB Bc|
A1/2A1/2A a2 ef ce|cA ce ae ce|A1/2A1/2A a2 ef ce|dB cA GB Bc|
A1/2A1/2A a2 ef ce|cA ce ae ce|ea ga ef ce|dB cA GB Bc:|
